content/packs/basic_addition/pims/grid_counting/field/graphics/icons/twenty_block_icon.svg

<svg width="50" xmlns="http://www.w3.org/2000/svg" height="50" fill="none"><defs><clipPath id="a" class="frame-clip frame-clip-def"><rect rx="0" ry="0" width="50" height="50"/></clipPath></defs><g clip-path="url(#a)"><g class="fills"><rect rx="0" ry="0" width="50" height="50" class="frame-background"/></g><g class="frame-children"><g class="fills"><rect rx="0" ry="0" x="-150" y="-7" width="350" height="64" class="frame-background"/></g><g class="frame-children"><rect rx="0" ry="0" x="-143" y="-3" width="336" height="56" style="fill: rgb(204, 204, 204); fill-opacity: 1;" class="fills"/><g class="strokes"><rect rx="0" ry="0" x="-143" y="-3" width="336" height="56" style="fill: none; stroke-width: 3; stroke: rgb(0, 0, 0); stroke-opacity: 1;" class="stroke-shape"/></g><g class="fills"><rect rx="0" ry="0" x="14" y="17" width="22" height="16" class="frame-background"/></g><g class="frame-children"><g class="fills"><rect rx="0" ry="0" x="25.717" y="17" width="10.283" height="16" class="frame-background"/></g><g class="frame-children"><path d="M36 24.989c0 1.684-.178 3.12-.533 4.31-.342 1.19-.889 2.105-1.643 2.743-.754.639-1.749.958-2.987.958-1.749 0-3.043-.704-3.882-2.112-.825-1.422-1.238-3.388-1.238-5.899 0-1.669.164-3.098.491-4.288.341-1.205.889-2.119 1.643-2.743.753-.639 1.749-.958 2.986-.958 1.735 0 3.03.704 3.883 2.112.853 1.393 1.28 3.352 1.28 5.877Zm-8.021 0c0 2.032.213 3.556.64 4.572.426 1.001 1.166 1.502 2.218 1.502 1.039 0 1.778-.501 2.219-1.502.441-1.002.661-2.526.661-4.572 0-2.017-.22-3.526-.661-4.528-.441-1.016-1.18-1.524-2.219-1.524-1.052 0-1.792.508-2.218 1.524-.427 1.002-.64 2.511-.64 4.528Z" style="display: inline; font-weight: 500; font-size: 5.64444px; line-height: 1.25; font-family: &quot;Noto Sans&quot;; stroke-width: 0.264583; fill: rgb(0, 0, 0); fill-opacity: 1;" class="fills"/></g><g class="fills"><rect rx="0" ry="0" x="14" y="17.277" width="10.24" height="15.445" class="frame-background"/></g><g class="frame-children"><path d="M24.24 32.723H14v-1.75l3.925-3.989a65.467 65.467 0 0 0 1.92-2.027c.512-.583.896-1.137 1.152-1.664a4.03 4.03 0 0 0 .384-1.749c0-.768-.227-1.351-.682-1.749-.455-.399-1.046-.598-1.771-.598-.697 0-1.323.128-1.877.384-.555.256-1.131.626-1.728 1.11l-1.216-1.515a9.681 9.681 0 0 1 2.09-1.323c.783-.384 1.714-.576 2.795-.576 1.451 0 2.588.37 3.413 1.11.839.739 1.259 1.728 1.259 2.965a5.24 5.24 0 0 1-.491 2.261c-.327.683-.789 1.366-1.386 2.048a36.965 36.965 0 0 1-2.112 2.198l-2.838 2.752v.106h7.403Z" style="display: inline; font-weight: 500; font-size: 5.64444px; line-height: 1.25; font-family: &quot;Noto Sans&quot;; stroke-width: 0.264583; fill: rgb(0, 0, 0); fill-opacity: 1;" class="fills"/></g></g></g></g></g></svg>

<svg width="50" xmlns="http://www.w3.org/2000/svg" height="50" id="screenshot-15768c80-d9e4-805b-8005-5e4b0b3be339" viewBox="0 0 50 50" xmlns:xlink="http://www.w3.org/1999/xlink" fill="none" version="1.1"><g id="shape-15768c80-d9e4-805b-8005-5e4b0b3be339"><defs><clipPath id="frame-clip-15768c80-d9e4-805b-8005-5e4b0b3be339-render-39" class="frame-clip frame-clip-def"><rect rx="0" ry="0" x="0" y="0" width="50" height="50" transform="matrix(1.000000, 0.000000, 0.000000, 1.000000, 0.000000, 0.000000)"/></clipPath></defs><g class="frame-container-wrapper"><g class="frame-container-blur"><g class="frame-container-shadows"><g clip-path="url(#frame-clip-15768c80-d9e4-805b-8005-5e4b0b3be339-render-39)" fill="none"><g class="fills" id="fills-15768c80-d9e4-805b-8005-5e4b0b3be339"><rect rx="0" ry="0" x="0" y="0" width="50" height="50" transform="matrix(1.000000, 0.000000, 0.000000, 1.000000, 0.000000, 0.000000)" class="frame-background"/></g><g class="frame-children"><g id="shape-c079da11-ea97-8013-8006-2a6e13b7df59"><g class="frame-container-wrapper"><g class="frame-container-blur"><g class="frame-container-shadows"><g fill="none"><g class="fills" id="fills-c079da11-ea97-8013-8006-2a6e13b7df59"><rect rx="0" ry="0" x="3" y="3" width="44" height="44" transform="matrix(1.000000, 0.000000, 0.000000, 1.000000, 0.000000, 0.000000)" class="frame-background"/></g><g class="frame-children"><g id="shape-c079da11-ea97-8013-8006-2a6e13b7df5a"><g class="fills" id="fills-c079da11-ea97-8013-8006-2a6e13b7df5a"><rect rx="0" ry="0" x="3" y="3" transform="matrix(1.000000, 0.000000, 0.000000, 1.000000, 0.000000, 0.000000)" width="44" height="44" style="fill: rgb(204, 204, 204); fill-opacity: 1;"/></g><g id="strokes-18cb738f-1f02-80ab-8006-2a6e91d0e5b5-c079da11-ea97-8013-8006-2a6e13b7df5a" class="strokes"><g class="stroke-shape"><rect rx="0" ry="0" x="3" y="3" transform="matrix(1.000000, 0.000000, 0.000000, 1.000000, 0.000000, 0.000000)" width="44" height="44" style="fill: none; stroke-width: 3; stroke: rgb(0, 0, 0); stroke-opacity: 1;"/></g></g></g></g></g></g></g></g></g><g id="shape-7a904c0c-1314-80ae-8005-5e854d12e7bb"><g class="frame-container-wrapper"><g class="frame-container-blur"><g class="frame-container-shadows"><g fill="none"><g class="fills" id="fills-7a904c0c-1314-80ae-8005-5e854d12e7bb"><rect rx="0" ry="0" x="14" y="17" width="22" height="16" transform="matrix(1.000000, 0.000000, 0.000000, 1.000000, 0.000000, 0.000000)" class="frame-background"/></g><g class="frame-children"><g id="shape-7a904c0c-1314-80ae-8005-5e854d12e7bc"><g class="frame-container-wrapper"><g class="frame-container-blur"><g class="frame-container-shadows"><g fill="none"><g class="fills" id="fills-7a904c0c-1314-80ae-8005-5e854d12e7bc"><rect rx="0" ry="0" x="25.71727115830754" y="17" width="10.28272884169246" height="16" transform="matrix(1.000000, 0.000000, 0.000000, 1.000000, 0.000000, 0.000000)" class="frame-background"/></g><g class="frame-children"><g id="shape-7a904c0c-1314-80ae-8005-5e854d12e7bd"><g class="fills" id="fills-7a904c0c-1314-80ae-8005-5e854d12e7bd"><path d="M36.000,24.989C36.000,26.673,35.822,28.109,35.467,29.299C35.125,30.489,34.578,31.404,33.824,32.042C33.070,32.681,32.075,33.000,30.837,33.000C29.088,33.000,27.794,32.296,26.955,30.888C26.130,29.466,25.717,27.500,25.717,24.989C25.717,23.320,25.881,21.891,26.208,20.701C26.549,19.496,27.097,18.582,27.851,17.958C28.604,17.319,29.600,17.000,30.837,17.000C32.572,17.000,33.867,17.704,34.720,19.112C35.573,20.505,36.000,22.464,36.000,24.989ZL36.000,24.989ZM27.979,24.989C27.979,27.021,28.192,28.545,28.619,29.561C29.045,30.562,29.785,31.063,30.837,31.063C31.876,31.063,32.615,30.562,33.056,29.561C33.497,28.559,33.717,27.035,33.717,24.989C33.717,22.972,33.497,21.463,33.056,20.461C32.615,19.445,31.876,18.937,30.837,18.937C29.785,18.937,29.045,19.445,28.619,20.461C28.192,21.463,27.979,22.972,27.979,24.989ZL27.979,24.989Z" style="display: inline; font-weight: 500; font-size: 5.64444px; line-height: 1.25; font-family: &quot;Noto Sans&quot;; stroke-width: 0.264583; fill: rgb(0, 0, 0); fill-opacity: 1;"/></g></g></g></g></g></g></g></g><g id="shape-7a904c0c-1314-80ae-8005-5e854d12e7be"><g class="frame-container-wrapper"><g class="frame-container-blur"><g class="frame-container-shadows"><g fill="none"><g class="fills" id="fills-7a904c0c-1314-80ae-8005-5e854d12e7be"><rect rx="0" ry="0" x="14" y="17.277285578978763" width="10.240061462237009" height="15.445428842042475" transform="matrix(1.000000, 0.000000, 0.000000, 1.000000, 0.000000, 0.000000)" class="frame-background"/></g><g class="frame-children"><g id="shape-7a904c0c-1314-80ae-8005-5e854d12e7bf"><g class="fills" id="fills-7a904c0c-1314-80ae-8005-5e854d12e7bf"><path d="M24.240,32.723L14.000,32.723L14.000,30.973L17.925,26.984C18.693,26.202,19.333,25.526,19.845,24.957C20.357,24.374,20.741,23.820,20.997,23.293C21.253,22.753,21.381,22.170,21.381,21.544C21.381,20.776,21.154,20.193,20.699,19.795C20.244,19.396,19.653,19.197,18.928,19.197C18.231,19.197,17.605,19.325,17.051,19.581C16.496,19.837,15.920,20.207,15.323,20.691L14.107,19.176C14.718,18.664,15.415,18.223,16.197,17.853C16.980,17.469,17.911,17.277,18.992,17.277C20.443,17.277,21.580,17.647,22.405,18.387C23.244,19.126,23.664,20.115,23.664,21.352C23.664,22.163,23.501,22.916,23.173,23.613C22.846,24.296,22.384,24.979,21.787,25.661C21.189,26.344,20.485,27.076,19.675,27.859L16.837,30.611L16.837,30.717L24.240,30.717Z" style="display: inline; font-weight: 500; font-size: 5.64444px; line-height: 1.25; font-family: &quot;Noto Sans&quot;; stroke-width: 0.264583; fill: rgb(0, 0, 0); fill-opacity: 1;"/></g></g></g></g></g></g></g></g></g></g></g></g></g></g></g></g></g></g></g></g></svg>
